;FLAVOR:Marlin
;TIME:15833
;Filament used: 14.1906m
;Layer height: 0.2
;MINX:48.7
;MINY:60.95
;MINZ:0.2
;MAXX:186.3
;MAXY:174.05
;MAXZ:4
;TARGET_MACHINE.NAME:Creality Ender-3
;Generated with Cura_SteamEngine 5.6.0
M140 S50
M105
M190 S50
M104 S200
M105
M109 S200
M82 ;absolute extrusion mode
; Ender 3 Custom Start G-code
G92 E0 ; Reset Extruder
G28 ; Home all axes
G1 Z2.0 F3000 ; Move Z Axis up little to prevent scratching of Heat Bed
G1 X0.1 Y20 Z0.3 F5000.0 ; Move to start position
G1 X0.1 Y200.0 Z0.3 F1500.0 E15 ; Draw the first line
G1 X0.4 Y200.0 Z0.3 F5000.0 ; Move to side a little
G1 X0.4 Y20 Z0.3 F1500.0 E30 ; Draw the second line
G92 E0 ; Reset Extruder
G1 Z2.0 F3000 ; Move Z Axis up little to prevent scratching of Heat Bed
G1 X5 Y20 Z0.3 F5000.0 ; Move over to prevent blob squish
G92 E0
G92 E0
G1 F2700 E-5
;LAYER_COUNT:20
;LAYER:0
M107
G0 F6000 X51.78 Y62.514 Z0.2
;TYPE:SKIRT
G1 F2700 E0
G1 F1200 X53.803 Y61.307 E0.07835
G1 X55.521 Y61.025 E0.13626
G1 X179.353 Y60.95 E4.25493
G1 X181.249 Y61.416 E4.31986
G1 X183.277 Y62.469 E4.39587
G1 X184.736 Y64.03 E4.46693
G1 X185.943 Y66.053 E4.54528
G1 X186.225 Y67.771 E4.60319
G1 X186.3 Y167.103 E7.90699
G1 X185.834 Y168.999 E7.97192
G1 X184.781 Y171.027 E8.04793
G1 X183.22 Y172.486 E8.11899
G1 X181.197 Y173.693 E8.19734
G1 X179.479 Y173.975 E8.25525
G1 X55.647 Y174.05 E12.37392
G1 X53.751 Y173.584 E12.43886
G1 X51.723 Y172.531 E12.51486
G1 X50.264 Y170.97 E12.58593
G1 X49.057 Y168.947 E12.66428
G1 X48.775 Y167.229 E12.72218
G1 X48.7 Y67.897 E16.02598
G1 X49.166 Y66.001 E16.09092
G1 X50.219 Y63.973 E16.16692
G1 X51.78 Y62.514 E16.23799
G0 F6000 X52.019 Y62.838
G1 F1200 X53.943 Y61.69 E16.3125
G1 X55.586 Y61.42 E16.36788
G1 X179.307 Y61.35 E20.48286
G1 X181.106 Y61.792 E20.54448
G1 X183.032 Y62.792 E20.61665
G1 X184.412 Y64.269 E20.68389
G1 X185.56 Y66.193 E20.7584
G1 X185.83 Y67.836 E20.81378
G1 X185.9 Y167.057 E24.11389
G1 X185.458 Y168.856 E24.1755
G1 X184.458 Y170.782 E24.24768
G1 X182.981 Y172.162 E24.31491
G1 X181.057 Y173.31 E24.38943
G1 X179.414 Y173.58 E24.44481
G1 X55.693 Y173.65 E28.55979
G1 X53.894 Y173.208 E28.6214
G1 X51.968 Y172.208 E28.69358
G1 X50.588 Y170.731 E28.76081
G1 X49.44 Y168.807 E28.83533
G1 X49.17 Y167.164 E28.89071
G1 X49.1 Y67.943 E32.19081
G1 X49.542 Y66.144 E32.25243
G1 X50.542 Y64.218 E32.32461
G1 X52.019 Y62.838 E32.39184
G0 F6000 X52.261 Y63.159
G1 F1200 X54.081 Y62.073 E32.46233
G1 X55.651 Y61.815 E32.51525
G1 X179.26 Y61.75 E36.6265
G1 X180.964 Y62.169 E36.68486
G1 X182.787 Y63.115 E36.75318
G1 X184.091 Y64.511 E36.81671
G1 X185.177 Y66.331 E36.8872
G1 X185.435 Y67.901 E36.94012
G1 X185.5 Y167.01 E40.2365
G1 X185.081 Y168.714 E40.29486
G1 X184.135 Y170.537 E40.36318
G1 X182.739 Y171.841 E40.42671
G1 X180.919 Y172.927 E40.4972
G1 X179.349 Y173.185 E40.55012
G1 X55.74 Y173.25 E44.66137
G1 X54.036 Y172.831 E44.71974
G1 X52.213 Y171.885 E44.78805
G1 X50.909 Y170.489 E44.85159
G1 X49.823 Y168.669 E44.92208
G1 X49.565 Y167.099 E44.975
G1 X49.5 Y67.99 E48.27138
G1 X49.919 Y66.286 E48.32974
G1 X50.865 Y64.463 E48.39805
G1 X52.261 Y63.159 E48.46159
G0 F6000 X52.503 Y63.48
G1 F1200 X54.219 Y62.456 E48.52805
G1 X55.716 Y62.21 E48.57851
G1 X179.214 Y62.15 E52.68607
G1 X180.821 Y62.545 E52.74111
G1 X182.542 Y63.438 E52.8056
G1 X183.77 Y64.753 E52.86544
G1 X184.794 Y66.469 E52.9319
G1 X185.04 Y67.966 E52.98236
G1 X185.1 Y166.964 E56.27505
G1 X184.705 Y168.571 E56.33009
G1 X183.812 Y170.292 E56.39458
G1 X182.497 Y171.52 E56.45442
G1 X180.781 Y172.544 E56.52088
G1 X179.284 Y172.79 E56.57134
G1 X55.786 Y172.85 E60.6789
G1 X54.179 Y172.455 E60.73394
G1 X52.458 Y171.562 E60.79843
G1 X51.23 Y170.247 E60.85827
G1 X50.206 Y168.531 E60.92474
G1 X49.96 Y167.034 E60.97519
G1 X49.9 Y68.036 E64.26788
G1 X50.295 Y66.429 E64.32292
G1 X51.188 Y64.708 E64.38741
G1 X52.503 Y63.48 E64.44725
G0 F6000 X52.745 Y63.801
G1 F1200 X54.357 Y62.839 E64.50969
G1 X55.781 Y62.605 E64.55769
G1 X179.168 Y62.55 E68.66155
G1 X180.678 Y62.921 E68.71327
G1 X182.297 Y63.761 E68.77394
G1 X183.449 Y64.995 E68.83008
G1 X184.411 Y66.607 E68.89252
G1 X184.645 Y68.031 E68.94052
G1 X184.7 Y166.918 E72.22951
G1 X184.329 Y168.428 E72.28123
G1 X183.489 Y170.047 E72.3419
G1 X182.255 Y171.199 E72.39804
G1 X180.643 Y172.161 E72.46048
G1 X179.219 Y172.395 E72.50848
G1 X55.832 Y172.45 E76.61235
G1 X54.322 Y172.079 E76.66406
G1 X52.703 Y171.239 E76.72473
G1 X51.551 Y170.005 E76.78088
G1 X50.589 Y168.393 E76.84331
G1 X50.355 Y166.969 E76.89131
G1 X50.3 Y68.082 E80.18031
G1 X50.671 Y66.572 E80.23202
G1 X51.511 Y64.953 E80.29269
G1 X52.745 Y63.801 E80.34883
G0 F6000 X52.987 Y64.122
G1 F1200 X54.495 Y63.222 E80.40724
G1 X55.846 Y63 E80.45278
G1 X179.121 Y62.95 E84.55293
G1 X180.536 Y63.298 E84.60139
G1 X182.052 Y64.084 E84.65819
G1 X183.128 Y65.237 E84.71064
G1 X184.028 Y66.745 E84.76905
G1 X184.25 Y68.096 E84.81459
G1 X184.3 Y166.871 E88.09986
G1 X183.952 Y168.286 E88.14832
G1 X183.166 Y169.802 E88.20512
G1 X182.013 Y170.878 E88.25757
G1 X180.505 Y171.778 E88.31598
G1 X179.154 Y172 E88.36152
G1 X55.879 Y172.05 E92.46166
G1 X54.464 Y171.702 E92.51013
G1 X52.948 Y170.916 E92.56693
G1 X51.872 Y169.763 E92.61938
G1 X50.972 Y168.255 E92.67779
G1 X50.75 Y166.904 E92.72333
G1 X50.7 Y68.129 E96.0086
G1 X51.048 Y66.714 E96.05706
G1 X51.834 Y65.198 E96.11386
G1 X52.987 Y64.122 E96.16631
G0 F6000 X53.229 Y64.443
G1 F1200 X54.633 Y63.605 E96.2207
G1 X55.911 Y63.395 E96.26377
G1 X179.075 Y63.35 E100.36022
G1 X180.393 Y63.674 E100.40537
G1 X181.807 Y64.407 E100.45834
G1 X182.807 Y65.479 E100.5071
G1 X183.645 Y66.883 E100.56148
G1 X183.855 Y68.161 E100.60456
G1 X183.9 Y166.825 E103.88614
G1 X183.576 Y168.143 E103.93128
G1 X182.843 Y169.557 E103.98425
G1 X181.771 Y170.557 E104.03301
G1 X180.367 Y171.395 E104.08739
G1 X179.089 Y171.605 E104.13047
G1 X55.925 Y171.65 E108.22692
G1 X54.607 Y171.326 E108.27206
G1 X53.193 Y170.593 E108.32504
G1 X52.193 Y169.521 E108.3738
G1 X51.355 Y168.117 E108.42818
G1 X51.145 Y166.839 E108.47126
G1 X51.1 Y68.175 E111.75283
G1 X51.424 Y66.857 E111.79798
G1 X52.157 Y65.443 E111.85095
G1 X53.229 Y64.443 E111.89971
G0 F6000 X53.474 Y64.762
G1 F1200 X54.771 Y63.988 E111.94995
G1 X55.976 Y63.79 E111.99056
G1 X179.029 Y63.75 E116.08332
G1 X180.25 Y64.05 E116.12514
G1 X181.56 Y64.729 E116.17422
G1 X182.488 Y65.724 E116.21947
G1 X183.262 Y67.021 E116.2697
G1 X183.46 Y68.226 E116.31032
G1 X183.5 Y166.779 E119.58821
G1 X183.2 Y168 E119.63003
G1 X182.521 Y169.31 E119.6791
G1 X181.526 Y170.238 E119.72435
G1 X180.229 Y171.012 E119.77459
G1 X179.024 Y171.21 E119.81521
G1 X55.971 Y171.25 E123.90797
G1 X54.75 Y170.95 E123.94978
G1 X53.44 Y170.271 E123.99886
G1 X52.512 Y169.276 E124.04411
G1 X51.738 Y167.979 E124.09435
G1 X51.54 Y166.774 E124.13497
G1 X51.5 Y68.221 E127.41285
G1 X51.8 Y67 E127.45467
G1 X52.479 Y65.69 E127.50375
G1 X53.474 Y64.762 E127.549
G0 F6000 X53.716 Y65.084
G1 F1200 X54.911 Y64.371 E127.59528
G1 X56.041 Y64.185 E127.63337
G1 X178.983 Y64.15 E131.72244
G1 X180.107 Y64.426 E131.76094
G1 X181.313 Y65.051 E131.80611
G1 X182.166 Y65.966 E131.84772
G1 X182.879 Y67.161 E131.894
G1 X183.065 Y68.291 E131.93209
G1 X183.1 Y166.733 E135.20629
G1 X182.824 Y167.857 E135.24478
G1 X182.199 Y169.063 E135.28996
G1 X181.284 Y169.916 E135.33157
G1 X180.089 Y170.629 E135.37785
G1 X178.959 Y170.815 E135.41594
G1 X56.017 Y170.85 E139.50501
G1 X54.893 Y170.574 E139.5435
G1 X53.687 Y169.949 E139.58868
G1 X52.834 Y169.034 E139.63029
G1 X52.121 Y167.839 E139.67657
G1 X51.935 Y166.709 E139.71466
G1 X51.9 Y68.267 E142.98885
G1 X52.176 Y67.143 E143.02735
G1 X52.801 Y65.937 E143.07253
G1 X53.716 Y65.084 E143.11413
G0 F6000 X53.958 Y65.406
G1 F1200 X55.051 Y64.754 E143.15646
G1 X56.106 Y64.58 E143.19203
G1 X178.936 Y64.55 E147.27737
G1 X179.965 Y64.803 E147.31261
G1 X181.066 Y65.373 E147.35385
G1 X181.844 Y66.208 E147.39181
G1 X182.496 Y67.301 E147.43414
G1 X182.67 Y68.356 E147.4697
G1 X182.7 Y166.686 E150.74017
G1 X182.447 Y167.715 E150.77541
G1 X181.877 Y168.816 E150.81665
G1 X181.042 Y169.594 E150.85461
G1 X179.949 Y170.246 E150.89694
G1 X178.894 Y170.42 E150.9325
G1 X56.064 Y170.45 E155.01784
G1 X55.035 Y170.197 E155.05309
G1 X53.934 Y169.627 E155.09432
G1 X53.156 Y168.792 E155.13228
G1 X52.504 Y167.699 E155.17461
G1 X52.33 Y166.644 E155.21018
G1 X52.3 Y68.314 E158.48065
G1 X52.553 Y67.285 E158.51589
G1 X53.123 Y66.184 E158.55713
G1 X53.958 Y65.406 E158.59508
G0 F6000 X54.2 Y65.728
G1 F1200 X55.191 Y65.137 E158.63346
G1 X56.171 Y64.975 E158.6665
G1 X178.89 Y64.95 E162.74815
G1 X179.822 Y65.179 E162.78007
G1 X180.819 Y65.695 E162.81741
G1 X181.522 Y66.45 E162.85172
G1 X182.113 Y67.441 E162.8901
G1 X182.275 Y68.421 E162.92313
G1 X182.3 Y166.64 E166.18991
G1 X182.071 Y167.572 E166.22183
G1 X181.555 Y168.569 E166.25917
G1 X180.8 Y169.272 E166.29348
G1 X179.809 Y169.863 E166.33186
G1 X178.829 Y170.025 E166.3649
G1 X56.11 Y170.05 E170.44655
G1 X55.178 Y169.821 E170.47847
G1 X54.181 Y169.305 E170.51581
G1 X53.478 Y168.55 E170.55012
G1 X52.887 Y167.559 E170.5885
G1 X52.725 Y166.579 E170.62153
G1 X52.7 Y68.36 E173.88831
G1 X52.929 Y67.428 E173.92023
G1 X53.445 Y66.431 E173.95757
G1 X54.2 Y65.728 E173.99188
G0 F6000 X54.439 Y66.052
G1 F1200 X55.331 Y65.52 E174.02642
G1 X56.236 Y65.37 E174.05694
G1 X178.844 Y65.35 E178.13489
G1 X179.679 Y65.555 E178.16349
G1 X180.574 Y66.018 E178.19701
G1 X181.198 Y66.689 E178.22748
G1 X181.73 Y67.581 E178.26203
G1 X181.88 Y68.486 E178.29254
G1 X181.9 Y166.594 E181.55562
G1 X181.695 Y167.429 E181.58422
G1 X181.232 Y168.324 E181.61774
G1 X180.561 Y168.948 E181.64821
G1 X179.669 Y169.48 E181.68276
G1 X178.764 Y169.63 E181.71327
G1 X56.156 Y169.65 E185.79123
G1 X55.321 Y169.445 E185.81982
G1 X54.426 Y168.982 E185.85334
G1 X53.802 Y168.311 E185.88381
G1 X53.27 Y167.419 E185.91836
G1 X53.12 Y166.514 E185.94887
G1 X53.1 Y68.406 E189.21195
G1 X53.305 Y67.571 E189.24055
G1 X53.768 Y66.676 E189.27407
G1 X54.439 Y66.052 E189.30454
G0 F6000 X54.678 Y66.376
G1 F1200 X55.471 Y65.903 E189.33525
G1 X56.302 Y65.765 E189.36327
G1 X178.798 Y65.75 E193.4375
G1 X179.536 Y65.931 E193.46278
G1 X180.329 Y66.341 E193.49247
G1 X180.874 Y66.928 E193.51911
G1 X181.347 Y67.721 E193.54982
G1 X181.485 Y68.552 E193.57784
G1 X181.5 Y166.548 E196.8372
G1 X181.319 Y167.286 E196.86247
G1 X180.909 Y168.079 E196.89217
G1 X180.322 Y168.624 E196.91881
G1 X179.529 Y169.097 E196.94952
G1 X178.698 Y169.235 E196.97754
G1 X56.202 Y169.25 E201.05177
G1 X55.464 Y169.069 E201.07704
G1 X54.671 Y168.659 E201.10673
G1 X54.126 Y168.072 E201.13338
G1 X53.653 Y167.279 E201.16409
G1 X53.515 Y166.448 E201.1921
G1 X53.5 Y68.452 E204.45146
G1 X53.681 Y67.714 E204.47674
G1 X54.091 Y66.921 E204.50643
G1 X54.678 Y66.376 E204.53307
G0 F6000 X54.917 Y66.7
G1 F1200 X55.611 Y66.286 E204.55995
G1 X56.368 Y66.16 E204.58547
G1 X178.748 Y66.15 E208.65585
G1 X179.397 Y66.309 E208.67807
G1 X180.084 Y66.664 E208.70379
G1 X180.55 Y67.167 E208.7266
G1 X180.964 Y67.861 E208.75348
G1 X181.09 Y68.618 E208.779
G1 X181.1 Y166.498 E212.0345
G1 X180.941 Y167.147 E212.05673
G1 X180.586 Y167.834 E212.08245
G1 X180.083 Y168.3 E212.10525
G1 X179.389 Y168.714 E212.13213
G1 X178.632 Y168.84 E212.15765
G1 X56.252 Y168.85 E216.22803
G1 X55.603 Y168.691 E216.25025
G1 X54.916 Y168.336 E216.27597
G1 X54.45 Y167.833 E216.29878
G1 X54.036 Y167.139 E216.32566
G1 X53.91 Y166.382 E216.35118
G1 X53.9 Y68.502 E219.60668
G1 X54.059 Y67.853 E219.62891
G1 X54.414 Y67.166 E219.65463
G1 X54.917 Y66.7 E219.67743
G0 F6000 X55.156 Y67.024
G1 F1200 X55.751 Y66.669 E219.70048
G1 X56.434 Y66.555 E219.72351
G1 X178.698 Y66.55 E223.79003
G1 X179.258 Y66.687 E223.8092
G1 X179.838 Y66.987 E223.83092
G1 X180.226 Y67.406 E223.84991
G1 X180.581 Y68.001 E223.87296
G1 X180.695 Y68.684 E223.89599
G1 X180.7 Y166.448 E227.14763
G1 X180.563 Y167.008 E227.16681
G1 X180.263 Y167.588 E227.18853
G1 X179.844 Y167.976 E227.20752
G1 X179.249 Y168.331 E227.23056
G1 X178.566 Y168.445 E227.2536
G1 X56.302 Y168.45 E231.32011
G1 X55.742 Y168.313 E231.33929
G1 X55.162 Y168.013 E231.36101
G1 X54.774 Y167.594 E231.38
G1 X54.419 Y166.999 E231.40304
G1 X54.305 Y166.316 E231.42608
G1 X54.3 Y68.552 E234.67772
G1 X54.437 Y67.992 E234.69689
G1 X54.737 Y67.412 E234.71861
G1 X55.156 Y67.024 E234.73761
G0 F6000 X55.398 Y67.345
G1 F1200 X55.889 Y67.052 E234.75662
G1 X56.5 Y66.95 E234.77723
G1 X178.648 Y66.95 E238.83989
G1 X179.119 Y67.065 E238.85601
G1 X179.592 Y67.31 E238.87373
G1 X179.905 Y67.648 E238.88905
G1 X180.198 Y68.139 E238.90807
G1 X180.3 Y68.75 E238.92867
G1 X180.3 Y166.398 E242.17646
G1 X180.185 Y166.869 E242.19258
G1 X179.94 Y167.342 E242.2103
G1 X179.602 Y167.655 E242.22562
G1 X179.111 Y167.948 E242.24464
G1 X178.5 Y168.05 E242.26524
G1 X56.352 Y168.05 E246.3279
G1 X55.881 Y167.935 E246.34403
G1 X55.408 Y167.69 E246.36174
G1 X55.095 Y167.352 E246.37707
G1 X54.802 Y166.861 E246.39608
G1 X54.7 Y166.25 E246.41669
G1 X54.7 Y68.602 E249.66447
G1 X54.815 Y68.131 E249.6806
G1 X55.06 Y67.658 E249.69831
G1 X55.398 Y67.345 E249.71364
G0 F6000 X55.64 Y67.666
G1 F1200 X56.027 Y67.435 E249.72863
G1 X56.5 Y67.35 E249.74461
G1 X178.598 Y67.35 E253.80561
G1 X178.98 Y67.443 E253.81868
G1 X179.346 Y67.633 E253.8324
G1 X179.584 Y67.89 E253.84405
G1 X179.815 Y68.277 E253.85904
G1 X179.9 Y68.75 E253.87502
G1 X179.9 Y166.348 E257.12115
G1 X179.807 Y166.73 E257.13422
G1 X179.617 Y167.096 E257.14794
G1 X179.36 Y167.334 E257.15959
G1 X178.973 Y167.565 E257.17458
G1 X178.5 Y167.65 E257.19056
G1 X56.402 Y167.65 E261.25156
G1 X56.02 Y167.557 E261.26464
G1 X55.654 Y167.367 E261.27835
G1 X55.416 Y167.11 E261.29
G1 X55.185 Y166.723 E261.30499
G1 X55.1 Y166.25 E261.32098
G1 X55.1 Y68.652 E264.5671
G1 X55.193 Y68.27 E264.58018
G1 X55.383 Y67.904 E264.59389
G1 X55.64 Y67.666 E264.60554
G0 F6000 X55.845 Y68.01
G1 F1200 X56.172 Y67.815 E264.6182
G1 X56.5 Y67.75 E264.62933
G1 X178.549 Y67.75 E268.68869
G1 X178.838 Y67.82 E268.69858
G1 X179.101 Y67.957 E268.70845
G1 X179.24 Y68.095 E268.71496
G1 X179.435 Y68.422 E268.72762
G1 X179.5 Y68.75 E268.73874
G1 X179.5 Y166.299 E271.98324
G1 X179.43 Y166.588 E271.99313
G1 X179.293 Y166.851 E272.00299
G1 X179.155 Y166.99 E272.00951
G1 X178.828 Y167.185 E272.02217
G1 X178.5 Y167.25 E272.03329
G1 X56.451 Y167.25 E276.09266
G1 X56.162 Y167.18 E276.10255
G1 X55.899 Y167.043 E276.11241
G1 X55.76 Y166.905 E276.11892
G1 X55.565 Y166.578 E276.13159
G1 X55.5 Y166.25 E276.14271
G1 X55.5 Y68.701 E279.3872
G1 X55.57 Y68.412 E279.39709
G1 X55.707 Y68.149 E279.40695
G1 X55.845 Y68.01 E279.41347
G0 F6000 X56.339 Y68.631
G1 F1200 X56.5 Y68.55 E279.41946
G1 X178.5 Y68.55 E283.4772
G1 X178.619 Y68.589 E283.48137
G1 X178.7 Y68.75 E283.48736
G1 X178.7 Y166.25 E286.73022
G1 X178.661 Y166.369 E286.73439
G1 X178.5 Y166.45 E286.74038
G1 X56.5 Y166.45 E290.79812
G1 X56.381 Y166.411 E290.80228
G1 X56.3 Y166.25 E290.80828
G1 X56.3 Y68.75 E294.05114
G1 X56.339 Y68.631 E294.05531
G0 F6000 X56.05 Y68.354
G1 F1200 X56.32 Y68.193 E294.06576
G1 X56.5 Y68.15 E294.07192
G1 X178.5 Y68.15 E298.12965
G1 X178.744 Y68.209 E298.138
G1 X178.896 Y68.3 E298.1439
G1 X179.057 Y68.57 E298.15435
G1 X179.1 Y68.75 E298.16051
G1 X179.1 Y166.25 E301.40337
G1 X179.041 Y166.494 E301.41172
G1 X178.95 Y166.646 E301.41761
G1 X178.68 Y166.807 E301.42807
G1 X178.5 Y166.85 E301.43422
G1 X56.5 Y166.85 E305.49196
G1 X56.256 Y166.791 E305.50031
G1 X56.104 Y166.7 E305.5062
G1 X55.943 Y166.43 E305.51666
G1 X55.9 Y166.25 E305.52281
G1 X55.9 Y68.75 E308.76567
G1 X55.959 Y68.506 E308.77402
G1 X56.05 Y68.354 E308.77992
G1 F2700 E303.77992
;MESH:HomeDisplayCasePart2.STL
G0 F6000 X59.35 Y71.464
G0 X61.485 Y74.851
;TYPE:WALL-INNER
G1 F2700 E308.77992
G1 F1200 X60.833 Y74.912 E308.8017
G1 X60.175 Y74.744 E308.82428
G1 X59.62 Y74.37 E308.84654
G1 X59.338 Y74.014 E308.86165
G1 X59.078 Y73.496 E308.88093
G1 X58.997 Y72.811 E308.90387
G1 X59.138 Y72.159 E308.92605
G1 X59.489 Y71.584 E308.94846
G1 X60.016 Y71.158 E308.971
G1 X60.655 Y70.93 E308.99356
G1 X61.345 Y70.93 E309.01651
G1 X61.884 Y71.122 E309.03554
G1 X62.267 Y71.352 E309.0504
G1 X62.714 Y71.858 E309.07286
G1 X62.927 Y72.392 E309.09198
G1 X63.007 Y72.84 E309.10712
G1 X62.916 Y73.503 E309.12938
